rospo-icon-theme-classic-common/16x16/apps/com.github.jmoerman.go-for-it.svg

<svg height="16" width="16" xmlns="http://www.w3.org/2000/svg"><g transform="translate(0 -32)"><ellipse cx="-22.627" cy="43.134" fill="#4e4e4e" rx="1.632" ry="1.355" transform="matrix(.70710678 -.70710678 .70710678 .70710678 0 0)"/><path d="m7.9999999 32c-4.4141228 0-7.99999991 3.585876-7.99999991 8 0 4.414123 3.58587711 8.000001 7.99999991 8 4.4141221 0 8.0000041-3.585877 8.0000001-8 0-4.414124-3.585878-8-8.0000001-8z" fill="#707070"/><path d="m8.0000003 34c-3.3105931 0-6.0000002 2.689406-6.0000002 5.999999 0 3.310594 2.6894071 6.000001 6.0000002 6.000001 3.3105927 0 6.0000017-2.689407 5.9999997-6.000001 0-3.310593-2.689407-5.999999-5.9999997-5.999999z" fill="#f7f7f7"/><path d="m15.765137 32.2401c.313151.313151.313151.817357 0 1.130508l-7.2455869 7.245587-.2609923-.085492c-.4208581-.13786-.1986343.882375-.5117851.569224-.3131504-.31315-.5363107-.487726-.3959823-.907767l.3352391-1.003459 6.9486005-6.948601c.31315-.31315.817356-.31315 1.130507 0z" fill="#30b630"/><path d="m3.1077955 37.402646c-.2214309.383529-.090933.870555.2925965 1.091986l5.0495652 2.915368.1816165-.45409c.1644596-.411193.3508285.189928.5722593-.193601.2214309-.38353-.2897179.027031-.1688522-.399017l.1125309-.39667-4.9477299-2.856573c-.3835298-.221431-.8705554-.090933-1.0919863.292597z" fill="#30b630"/><path d="m8.0000002 38c-1.103531 0-2 .896469-2 2s .896469 2 2 2c1.1035305 0 1.9999995-.896469 1.9999995-2s-.896469-2-1.9999995-2z" fill="#707070"/></g></svg>

<svg xmlns="http://www.w3.org/2000/svg" width="16" height="16" version="1.1">
 <g transform="translate(0,-32)">
  <ellipse style="fill:#4e4e4e" cx="-22.627" cy="43.134" rx="1.632" ry="1.355" transform="matrix(0.70710678,-0.70710678,0.70710678,0.70710678,0,0)"/>
  <path d="M 7.9999999,32 C 3.5858771,32 -1.0001675e-8,35.585876 -1.0001675e-8,40 -1.0001675e-8,44.414123 3.5858771,48.000001 7.9999999,48 12.414122,48 16.000004,44.414123 16,40 16,35.585876 12.414122,32 7.9999999,32 Z" style="fill:#707070"/>
  <path d="M 8.0000003,34 C 4.6894072,34 2.0000001,36.689406 2.0000001,39.999999 2.0000001,43.310593 4.6894072,46 8.0000003,46 11.310593,46 14.000002,43.310593 14,39.999999 14,36.689406 11.310593,34 8.0000003,34 Z" style="fill:#f7f7f7"/>
  <path style="fill:#30b630" d="m 15.765137,32.2401 c 0.313151,0.313151 0.313151,0.817357 0,1.130508 L 8.5195501,40.616195 8.2585578,40.530703 C 7.8376997,40.392843 8.0599235,41.413078 7.7467727,41.099927 7.4336223,40.786777 7.210462,40.612201 7.3507904,40.19216 L 7.6860295,39.188701 14.63463,32.2401 c 0.31315,-0.31315 0.817356,-0.31315 1.130507,0 z"/>
  <path style="fill:#30b630" d="m 3.1077955,37.402646 c -0.2214309,0.383529 -0.090933,0.870555 0.2925965,1.091986 L 8.4499572,41.41 8.6315737,40.95591 C 8.7960333,40.544717 8.9824022,41.145838 9.203833,40.762309 9.4252639,40.378779 8.9141151,40.78934 9.0349808,40.363292 L 9.1475117,39.966622 4.1997818,37.110049 C 3.816252,36.888618 3.3292264,37.019116 3.1077955,37.402646 Z"/>
  <path style="fill:#707070" d="m 8.0000002,38 c -1.103531,0 -2,0.896469 -2,2 0,1.103531 0.896469,2 2,2 1.1035305,0 1.9999995,-0.896469 1.9999995,-2 0,-1.103531 -0.896469,-2 -1.9999995,-2 z"/>
 </g>
</svg>
